X:1
T:Deh cant' Aminta
T:Horatio Vecchi
T:Source : Canzonette a tre voci di H.Vecchi et di G.Cupilupi da Modena---Venetia---Ang.Gardano---1597. Editor : André Vierendeels ( 15/02/17).
T:-natural
T:Deh cant' Aminta
T:©
T:©
T:©
C:Horatio Vecchi
Z:©
%%score [ 1 2 3 ]
L:1/8
Q:1/4=120
M:4/4
K:F
V:1 treble nm="Soprano 1" snm="S 1"
V:2 treble nm="Soprano 2" snm="S 2"
V:3 treble-8 nm="Tenor" snm="T"
V:1
 d8 | cBcd c2 B2 | A4 A4 | z2 d2 f2 g2 | e2 f2 e4 | d4 z4 | z2 G2 B2 c2 | A2 B2 A4 | =B8 :: %9
w: 1. DEh|cant' _ _ _ _ A-|min- ta,|un' A- ri'a|la Ro- ma-|na,|un' A ri'a|la Ro ma|na.-|
w: 2. Ec-|co _ _ _ _ ch'as-|fi- so|as- col- te-|ro'il tuo can-|to,|as- col- te-|ro'il tuo can-|to,|
[M:3/4] d2 d2 d2 | _e2 e2 d2 | c4 B2 |[M:4/4] A4 A4 | d8 | B2 c2 d4- | d4 d4 | c2 c4 d2 | %17
w: Io son con-|ten- to, ch'io|n'ho ben|cen- to,|ma|pria m'as- col-|* ti,|e tien l'or-|
w: A pun- to|L'AU- RA, dol-|ce ri-|stau- ra,|co-|si Cor- te-|* s'e|leg- gier- men-|
 _e2 d2 c4 | c2 B2 A4 | A4 z2 d2 | c2 B2 A2 G2 | ^F2 G4 F2 | G2 g2 f2 e2 | d2 G2 B2 c2 | %24
w: re- ch'ie'in- ten-|te, a que-|ste, u-|scit' in lu- ce|no- va- men-|te, u- scit' in|lu- ce no- va-|
w: * te spi-|ra, e- veg-|gio, a|tuo fa- vor ch'A-|pol' t'in- spi-|ra, a tuo fa-|vor ch'A- pl' t'in-|
 d3 c B2 c2- | c2 B2 A4 | =B8 :| %27
w: men- * * *||te.|
w: vi- * * *||ta.|
V:2
 B8 | AGAB A2 G2 |"^-natural" ^F4 F2 f2 | f3 e d2 e2 | ^c2 d4 c2 | d2 A2 d3 c | BA B2 G2 A2 | %7
w: 1. Deh|cant' _ _ _ _ A-|min- ta, un'|A- ri'a la Ro-|ma- * *|na, un' A- *|* * * ri'a la|
w: 3. Ma|se _ _ _ _ de-|si- i, di|con- ten- tar- mi|a pie- no,|pren- d'il Liu- *|* * to, ch'è'un gran|
 ^F2 G4 F2 | G8 ::[M:3/4] B2 A2 =B2 | c2 c2 B2 | A4 G2 |[M:4/4] ^F4 F4 | B8 | G2 A2 B4- | B4 B4 | %16
w: Ro- ma- *|na.|Io son con-|ten- to, ch'io|n'ho ben|cen- to,|ma|pria m'as- col-|* ti,|
w: a- iu- *|to,|E sen- za|que- st'o- gn'a-|ri- a'è|man- co,|è|man- co gra-|* ta,|
 A2 A4 B2 | G2 B2 A4 | A2 G2 ^F4 |"^-natural" ^F2 F2 G2 G2 | A2 B2 c4- | c2 B2 A4 | G4 z2 g2 | %23
w: e tien l'or-|riec- che'in- ten-|te, a que-|ste u- scit' in|lu- ce no-|* va men-|te, u-|
w: ma'il suon e'l|can- * *|to, e'l can-|to, è gem- ma|in or le-|* * ga-|ta, è|
 f2 e2 d2 c2 | B2 A2 G3 A | ^F2 G4 F2 | G8 :| %27
w: scit' in lu- ce|no- va- men- *||te.|
w: gem- ma in or|le- ga- ta, in|or le- ga-|ta.|
V:3
 B8 | F6 G2 | D4 D2 d2 | d3 c B2 G2 | A8 | D4 z2 D2 | G3 F _E2 C2 | D8 | G,8 ::[M:3/4] G2 ^F2 G2 | %10
w: 1. Deh|cant' A-|min- ta, un'|A- ri'a la Ro-|ma-|na, un'|A- ri'a la Ro-|ma-||Io son con-|
w: ||||||||na.||
 C2 C2 D2 | F4 G2 |[M:4/4] D4 D4 | B,8 |"^b" E2 C2 B,4- | B,4 B,4 | F2 F4 D2 | C2 B,2 F4 | %18
w: ten- to, ch'io|n'ho ben|cen- to,|ma|pria m'as- col-|* ti,|e tien l'or-|rec- chie'in- ten-|
w: ||||||||
"^-natural" F2 G2 D4 | D2 d2 c2 B2 | A2 G2 F2 _E2 | D8 | G4 z4 | z2 c2 B2 A2 | G2 F2 _E2 C2 | D8 | %26
w: te, a que-|ste u- scit' in|lu- ce no- va-|men-|te,|u- scit' in|lu- ce no- va-|men-|
w: ||||||||
 G8 :| %27
w: te.|
w: |

